weblate_web/static/img/icon-twitter.svg

<svg viewBox="0 0 20.92 17"><path fill="#fff" d="M20.92 2c-.77.35-1.6.58-2.46.69.88-.53 1.56-1.37 1.88-2.38-.83.5-1.75.85-2.72 1.05C16.83.5 15.72 0 14.46 0c-2.35 0-4.27 1.92-4.27 4.29 0 .34.04.67.11.98C6.74 5.09 3.57 3.38 1.46.79c-.37.63-.58 1.37-.58 2.15 0 1.49.75 2.81 1.91 3.56-.71 0-1.37-.2-1.95-.5v.03c0 2.08 1.48 3.82 3.44 4.21a4.22 4.22 0 01-1.93.07 4.28 4.28 0 004 2.98 8.521 8.521 0 01-5.33 1.84c-.34 0-.68-.02-1.02-.06C1.9 16.29 4.16 17 6.58 17c7.88 0 12.21-6.54 12.21-12.21 0-.19 0-.37-.01-.56.84-.6 1.56-1.36 2.14-2.23z"/></svg>

<?xml version="1.0" encoding="UTF-8" standalone="no"?>
<svg
   xmlns:dc="http://purl.org/dc/elements/1.1/"
   xmlns:cc="http://creativecommons.org/ns#"
   xmlns:rdf="http://www.w3.org/1999/02/22-rdf-syntax-ns#"
   xmlns:svg="http://www.w3.org/2000/svg"
   xmlns="http://www.w3.org/2000/svg"
   xmlns:sodipodi="http://sodipodi.sourceforge.net/DTD/sodipodi-0.dtd"
   xmlns:inkscape="http://www.inkscape.org/namespaces/inkscape"
   version="1.1"
   width="20.92"
   height="17"
   viewBox="0 0 20.92 17"
   id="svg4"
   sodipodi:docname="twitter.svg"
   inkscape:version="0.92.4 (5da689c313, 2019-01-14)">
  <metadata
     id="metadata10">
    <rdf:RDF>
      <cc:Work
         rdf:about="">
        <dc:format>image/svg+xml</dc:format>
        <dc:type
           rdf:resource="http://purl.org/dc/dcmitype/StillImage" />
        <dc:title></dc:title>
      </cc:Work>
    </rdf:RDF>
  </metadata>
  <defs
     id="defs8" />
  <sodipodi:namedview
     pagecolor="#ffffff"
     bordercolor="#666666"
     borderopacity="1"
     objecttolerance="10"
     gridtolerance="10"
     guidetolerance="10"
     inkscape:pageopacity="0"
     inkscape:pageshadow="2"
     inkscape:window-width="1920"
     inkscape:window-height="1027"
     id="namedview6"
     showgrid="false"
     fit-margin-top="0"
     fit-margin-left="0"
     fit-margin-right="0"
     fit-margin-bottom="0"
     inkscape:zoom="9.8333333"
     inkscape:cx="5.4261017"
     inkscape:cy="9"
     inkscape:window-x="-8"
     inkscape:window-y="-8"
     inkscape:window-maximized="1"
     inkscape:current-layer="svg4" />
  <path
     d="M 20.92,2 C 20.15,2.35 19.32,2.58 18.46,2.69 19.34,2.16 20.02,1.32 20.34,0.31 19.51,0.81 18.59,1.16 17.62,1.36 16.83,0.5 15.72,0 14.46,0 c -2.35,0 -4.27,1.92 -4.27,4.29 0,0.34 0.04,0.67 0.11,0.98 C 6.74,5.09 3.57,3.38 1.46,0.79 1.09,1.42 0.88,2.16 0.88,2.94 0.88,4.43 1.63,5.75 2.79,6.5 2.08,6.5 1.42,6.3 0.84,6 c 0,0 0,0 0,0.03 0,2.08 1.48,3.82 3.44,4.21 -0.36,0.1 -0.74,0.15 -1.13,0.15 -0.27,0 -0.54,-0.03 -0.8,-0.08 0.54,1.69 2.11,2.95 4,2.98 C 4.89,14.45 3.04,15.13 1.02,15.13 0.68,15.13 0.34,15.11 0,15.07 1.9,16.29 4.16,17 6.58,17 c 7.88,0 12.21,-6.54 12.21,-12.21 0,-0.19 0,-0.37 -0.01,-0.56 0.84,-0.6 1.56,-1.36 2.14,-2.23 z"
     id="path2"
     inkscape:connector-curvature="0"
     fill="#ffffff" />
</svg>
